X:380
T:Roanoke
C:Bill Monroe
N:Transcribed by Mike Stangeland
R:bluegrass
L:1/8
Q:1/4=270
M:4/4
K:G
z6 ef | gf ga ge dB | AG FA G2 DE | =F2 F2 ED B,A, | G,6 GE |: "G"DC B,A, G,A, B,D | 
EF GB AG FE | DC B,A, G,A, B,D | "D"EF GA "G"G2 GE | "G"DC B,A, G,A, B,D | EF GA Bd ef | 
gf ga ge dB |1 A"D"G FA "G"G2 =FE :|2 A"D"G FA "G"G4 |: [b2d2] [bd][bd] [b2d2] [bd][bd] | 
[b2d2] [a2c2] [g4B4] | "C"[e2G2] [eG][eG] [e2G2] [eG][eG] | [e2G2] [d2=F2] [c4E4] | 
[b2d2] [bd][bd] [b2d2] [bd][bd] | [b2d2] [a2c2] [g4B4] | "D"DE FA dA FD |1 G"G"E DB, G,4 :|2 G"G"E DB, G,2 ef | 
gf ga ge dB | AG FA GD EF | GB AG EF GE | DC B,A, G,4 | 


